svg/Filled/volume-low_filled.svg

<svg viewBox="0 0 24 24" xmlns="http://www.w3.org/2000/svg" width="24" height="24"><path d="M13.6 5.7q.74.13 1.21.73l.1.13c.18.31.24.66.26.94q.04.5.03 1.22v6.56q0 .72-.03 1.22c-.02.28-.08.63-.27.94l-.09.13c-.3.39-.73.65-1.2.72l-.21.02c-.44.03-.8-.15-1.09-.3q-.43-.26-1.02-.67l-1.92-1.32c-.4-.27-.6-.41-.76-.5l-.15-.08a3 3 0 0 0-.66-.24l-.24-.04a8 8 0 0 0-1.07-.03l-.33-.01q-.13 0-.32-.06l-.12-.04a1.4 1.4 0 0 1-.71-.64l-.06-.13a1 1 0 0 1-.1-.44v-3.62q0-.17.1-.44L5 9.62q.24-.45.7-.64l.13-.05q.19-.04.32-.05h.33c.63 0 .86 0 1.07-.04l.24-.04q.34-.09.66-.24l.15-.08c.16-.1.37-.23.76-.5l1.92-1.32.55-.37.47-.3a2 2 0 0 1 1.09-.3zm4.28 2.4a.9.9 0 0 1 1.21.02l.06.06.13.15q.42.58.68 1.47l.07.25q.23.91.23 1.95v.29a8 8 0 0 1-.3 1.91 4 4 0 0 1-.8 1.62l-.07.06a.9.9 0 0 1-1.3-1.24l.1-.13q.16-.24.34-.8.19-.66.22-1.48V12q0-.84-.17-1.52l-.05-.19q-.17-.56-.34-.8l-.1-.13-.05-.07a.9.9 0 0 1 .14-1.2"/></svg>

<svg viewBox="0 0 24 24" xmlns="http://www.w3.org/2000/svg" width="24" height="24"><path d="M13.6 5.7Q14.34 5.83 14.81 6.43L14.91 6.56C15.09 6.87 15.15 7.22 15.17 7.5Q15.21 8 15.2 8.72L15.2 15.28Q15.2 16 15.17 16.5C15.15 16.78 15.09 17.13 14.9 17.44L14.81 17.57C14.51 17.96 14.08 18.22 13.61 18.29L13.4 18.31C12.96 18.34 12.6 18.16 12.31 18.01Q11.88 17.75 11.29 17.34L9.37 16.02C8.97 15.75 8.77 15.61 8.61 15.52L8.46 15.44A3 3 0 0 0 7.8 15.2L7.56 15.16A8 8 0 0 0 6.49 15.13L6.16 15.12Q6.03 15.12 5.84 15.06L5.72 15.02A1.4 1.4 0 0 1 5.01 14.38L4.95 14.25A1 1 0 0 1 4.85 13.81L4.85 10.19Q4.85 10.02 4.95 9.75L5 9.62Q5.24 9.17 5.7 8.98L5.83 8.93Q6.02 8.89 6.15 8.88L6.48 8.88C7.11 8.88 7.34 8.88 7.55 8.84L7.79 8.8Q8.13 8.71 8.45 8.56L8.6 8.48C8.76 8.38 8.97 8.25 9.36 7.98L12.3 5.99A2 2 0 0 1 13.39 5.69ZM17.88 8.1A.9 .9 0 0 1 19.09 8.12L19.28 8.33Q19.7 8.91 19.96 9.8L20.03 10.05Q20.26 10.96 20.26 12L20.26 12.29A8 8 0 0 1 19.96 14.2A4 4 0 0 1 19.16 15.82L19.09 15.88A.9 .9 0 0 1 17.79 14.64L17.89 14.51Q18.05 14.27 18.23 13.71Q18.42 13.05 18.45 12.23L18.45 12Q18.45 11.16 18.28 10.48L18.23 10.29Q18.06 9.73 17.89 9.49L17.74 9.29A.9 .9 0 0 1 17.88 8.09"/></svg>
